X:8153
T:WNTNTHG- My Wife's a wanton Wi Thing
O:england
S:Mitchell's Highland Fair, 1731
Q:1/4=120
L:1/4
M:6/4
K:D
d2AA(B/c/)dA|d3A2B|=c3/2d/ccGE|=c3=C2^c|d2AB/c/dA|\
d3A2G|FDFECE|(D3D2||F/G/|A3/2B/AFDF|A3F2E/F/|\
G3/2A/AECE|G3E2F/G/|A3/2B/AFDF|A3a2g|fdfece|(d3d2)|]


